X: 19633
T: Jaybird
R: reel
M: 4/4
K: Dmajor
A|:B2B2 BAFA|GAFA E3e|efed cBAA|B2B2 BAFA|
G2G2 GFEF|GAFA E3e|efed ceag|1 fddc d2dA:|2 fddc d4||
|:f2de f2de|faab a2gf|e2cd e2cd|edef g2ag|
f2de f2de|faab a2gf|efed ceag|1 fddc d2de:|2 fddc d2dA||

